!!!COM: Palestrina, Giovanni Perluigi da
!!!OPR: Missa Veni creator Spiritus
!!!OMD: Credo
!!!OTL: Et in Spiritum
**kern	**kern	**kern	**kern	**kern	**kern
*Ibass	*Itenor	*Itenor	*Icalto	*Icant	*Icant
!Bassus	!Tenor 2	!Tenor 1	!Altus	!Cantus 2	!Cantus 1
*clefF4	*clefGv2	*clefGv2	*clefG2	*clefG2	*clefG2
*k[]	*k[]	*k[]	*k[]	*k[]	*k[]
*G:mix	*G:mix	*G:mix	*G:mix	*G:mix	*G:mix
*M4/2	*M4/2	*M4/2	*M4/2	*M4/2	*M4/2
=137	=137	=137	=137	=137	=137
1.G	1.d	0r	0r	1.b	1.g
2G	2d	.	.	2b	2g
=138	=138	=138	=138	=138	=138
2c	2e	0r	0r	2cc	2g
2c	2e	.	.	2cc	2g
2F	1f	.	.	2cc	1a
4D	.	.	.	[2ff	.
4E	.	.	.	.	.
=139	=139	=139	=139	=139	=139
4F	2.c	0r	0r	2ff]	1.a
4G	.	.	.	.	.
4A	.	.	.	1ee	.
4B	4d	.	.	.	.
2c	2e	.	.	.	.
2d	2f	.	.	[2dd	2a
=140	=140	=140	=140	=140	=140
2B	2d	0r	0r	2dd]	2g
2c	2e	.	.	2cc	2g
1G	1d	.	.	2b	1g
.	.	.	.	4gg	.
.	.	.	.	4ff	.
=141	=141	=141	=141	=141	=141
2.c	1e	0r	0r	4ee	1g
.	.	.	.	4dd	.
.	.	.	.	1cc	.
4B	.	.	.	.	.
4A	1c	.	.	.	1f
4G	.	.	.	.	.
[2F	.	.	.	2a	.
=142	=142	=142	=142	=142	=142
2F]	1.A	0r	0r	2cc	2f
2D	.	.	.	1dd	2f
2F	.	.	.	.	1f
2A	2c	.	.	[2cc	.
=143	=143	=143	=143	=143	=143
1G	1d	1r	1r	4cc]	1.g
.	.	.	.	8b	.
.	.	.	.	8a	.
.	.	.	.	2b	.
[1C	2.e	2r	2r	2cc	.
.	.	[2c	[2e	[2ee	[2g
.	4d	.	.	.	.
=144	=144	=144	=144	=144	=144
1C]	1c	2c]	2e]	2ee]	2g]
.	.	2e	2g	2cc	2g
1r	1r	2d	2f	2dd	2a
.	.	2c	2e	2ee	2a
=145	=145	=145	=145	=145	=145
0r	0r	2.d	2.f	2.dd	2.a
.	.	4d	4f	4dd	4a
.	.	1A	2e	2cc	1a
.	.	.	[2c	[2ee	.
=146	=146	=146	=146	=146	=146
0r	0r	2c	2c]	2ee]	2g
.	.	2B	2d	2dd	2g
.	.	1c	1e	1cc	1g
=147	=147	=147	=147	=147	=147
1r	2r	1G	1d	1b	1g
.	2.g	.	.	.	.
[1C	.	1g	1e	1r	[1cc
.	4f	.	.	.	.
.	4e	.	.	.	.
.	4d	.	.	.	.
=148	=148	=148	=148	=148	=148
2C]	2c	1e	1g	0r	2cc]
2C	2c	.	.	.	2cc
1F	1A	2.f	1a	.	1cc
.	.	4g	.	.	.
=149	=149	=149	=149	=149	=149
1D	1A	1a	1f	0r	1dd
1G	1B	2d	1g	.	1dd
.	.	2d	.	.	.
=150	=150	=150	=150	=150	=150
2D	2A	2d	2f	1r	2dd
2E	2B	2d	2g	.	2dd
2C	2c	2.g	2e	2r	[1cc
[2c	[2e	.	[2g	[2ee	.
.	.	4f	.	.	.
=151	=151	=151	=151	=151	=151
2c]	2e]	1e	2g]	2ee]	0cc]
2c	2c	.	2g	2ee	.
2A	2c	1r	2a	2ee	.
2F	2A	.	2a	2ff	.
=152	=152	=152	=152	=152	=152
1A	4c	1r	2a	1.ee	0r
.	4d	.	.	.	.
.	4e	.	1cc	.	.
.	4f	.	.	.	.
[1G	1g	2r	.	.	.
.	.	2g	4b	2dd	.
.	.	.	4a	.	.
=153	=153	=153	=153	=153	=153
1G]	2d	2g	2b	2r	0r
.	4r	2g	2b	2dd	.
.	4g	.	.	.	.
1r	2g	2e	2b	[1ee	.
.	2g	[2c	2cc	.	.
=154	=154	=154	=154	=154	=154
0r	2e	2c]	1.g	2ee]	0r
.	2c	2.e	.	2ee	.
.	1e	.	.	2b	.
.	.	4f	.	.	.
.	.	[2g	2g	2cc	.
=155	=155	=155	=155	=155	=155
0r	1d	4g]	1a	1dd	0r
.	.	8f#	.	.	.
.	.	8e	.	.	.
.	.	2f#	.	.	.
.	1G	1g	1b	1dd	.
=156	=156	=156	=156	=156	=156
1.F	1.A	2r	1.a	2r	1.cc
.	.	1f	.	1ff	.
2F	2A	2c	2a	2ff	2cc
=157	=157	=157	=157	=157	=157
2C	2c	2e	2g	2ee	2cc
2C	2c	2e	2g	2ee	2cc
4C	2c	2e	1cc	2ee	1g
4D	.	.	.	.	.
4E	[2G	[2g	.	2ee	.
4F	.	.	.	.	.
=158	=158	=158	=158	=158	=158
1G	4G]	4g]	1.b	2dd	1g
.	4A	8f	.	.	.
.	.	8e	.	.	.
.	2B	2d	.	2.gg	.
2E	2G	1e	.	.	1g
.	.	.	.	4ff	.
2C	2c	.	[2cc	4ee	.
.	.	.	.	4dd	.
=159	=159	=159	=159	=159	=159
2.F	0A	1f	2cc]	4cc	0a
.	.	.	.	4a	.
.	.	.	2.a	1dd	.
4G	.	.	.	.	.
1A	.	1e	.	.	.
.	.	.	4g	.	.
.	.	.	2e	2cc#	.
=160	=160	=160	=160	=160	=160
1D	2r	2d	2f#	1dd	2a
.	2d	2d	2f#	.	2a
1r	2c	2e	2g	1r	2cc
.	2A	2f	2a	.	2cc
=161	=161	=161	=161	=161	=161
0r	1c	1e	1g	0r	1cc
.	2F	2f	2a	.	2cc
.	2A	2e	2a	.	2cc
=162	=162	=162	=162	=162	=162
0r	1.G	1.g	1.b-	0r	1.dd
.	2d	2f	2a	.	2dd
=163	=163	=163	=163	=163	=163
2r	1d	2f	2a	1r	2dd
2B-	.	2d	2f	.	2dd
2A	1r	2e	2.a	2r	2cc
2F	.	2f	.	2ff	2cc
.	.	.	4a	.	.
=164	=164	=164	=164	=164	=164
2.A	0r	1.c	2a	2ee	1.cc
.	.	.	2a	2cc	.
4B	.	.	.	.	.
1c	.	.	2g	2.ee	.
.	.	2e	[2cc	.	2cc
.	.	.	.	4ff	.
=165	=165	=165	=165	=165	=165
1G	0r	2d	4cc]	2gg	0dd
.	.	.	4b	.	.
.	.	2g	2b	2g	.
2D	.	2g	2a	2a	.
2D	.	2f#	2d	2a	.
=166	=166	=166	=166	=166	=166
1G	2r	1g	1d	1b	1dd
.	2d	.	.	.	.
1r	2c	1r	2r	1cc	[1ee
.	2A	.	2a	.	.
=167	=167	=167	=167	=167	=167
0r	2.c	2r	2g	0r	1ee]
.	.	2a	2cc	.	.
.	4d	.	.	.	.
.	2e	2g	2b	.	1ee
.	2c	2e	2cc	.	.
=168	=168	=168	=168	=168	=168
0r	1.d	2.f	2.a	2r	[0dd
.	.	.	.	1a	.
.	.	4g	4g	.	.
.	.	2a	2f	.	.
.	2G	2g	2b-	[2dd	.
=169	=169	=169	=169	=169	=169
1r	1d	2g	2a	2dd]	1dd]
.	.	2f#	2a	2a	.
1G	2r	[1g	1g	1b	1r
.	2d	.	.	.	.
=170	=170	=170	=170	=170	=170
2.c	1.e	1g]	2r	0r	0cc
.	.	.	2g	.	.
4B	.	.	.	.	.
2A	.	1r	2a	.	.
2A	2e	.	2a	.	.
=171	=171	=171	=171	=171	=171
0G	1g	2r	1b	2r	1.dd
.	.	2d	.	2g	.
.	2r	2g	1r	2b	.
.	[2g	2g	.	2b	2dd
=172	=172	=172	=172	=172	=172
2r	2g]	1c	2r	0cc	1ee
2c	2e	.	2g	.	.
2A	2c	2r	2a	.	1ee
2c	[2e	2g	2g	.	.
=173	=173	=173	=173	=173	=173
4c	2e]	2a	1e	0r	2cc
4B	.	.	.	.	.
4A	2c	1g	.	.	2cc
4G	.	.	.	.	.
1A	1r	.	1c	.	1cc
.	.	2f#	.	.	.
=174	=174	=174	=174	=174	=174
1G	2r	2g	1d	2r	2b
.	1g	1G	.	1dd	1b
1r	.	.	1r	.	.
.	2g	2G	.	2dd	2b
=175	=175	=175	=175	=175	=175
0r	2f	2d	0r	2dd	2a
.	2e	2c#	.	2ee	2a
.	1f#	1d	.	1dd	1a
=176	=176	=176	=176	=176	=176
2r	1g	1G	2r	2b	0dd
1G	.	.	2g	1b	.
.	1r	2r	2d	.	.
2D	.	2d	[2f	2a	.
=177	=177	=177	=177	=177	=177
4F	1r	2A	2f]	1a	1.cc
4G	.	.	.	.	.
4A	.	2.c	4e	.	.
4B	.	.	4d	.	.
2.c	2r	.	2e	1g	.
.	.	4d	.	.	.
.	[2g	4e	2c	.	2cc
8B	.	4f	.	.	.
8A	.	.	.	.	.
=178	=178	=178	=178	=178	=178
0G	2g]	2.g	1d	2r	0b
.	2d	.	.	1gg	.
.	.	8f	.	.	.
.	.	8e	.	.	.
.	1g	1d	1r	.	.
.	.	.	.	2dd	.
=179	=179	=179	=179	=179	=179
1C	2.g	2c	2r	1ee	0cc
.	.	1e	1g	.	.
.	4f	.	.	.	.
1c	1e	.	.	2ee	.
.	.	2g	[2e	[2ee	.
=180	=180	=180	=180	=180	=180
1A	2r	1a	2e]	2ee]	0r
.	1f	.	2.a	2cc	.
1B-	.	1d	.	[1dd	.
.	.	.	8g	.	.
.	.	.	8f	.	.
.	2d	.	2g	.	.
=181	=181	=181	=181	=181	=181
1A	1e	1r	1a	2dd]	0r
.	.	.	.	2cc#	.
1r	1d	2.a	2.f	2.dd	.
.	.	4g	4g	4dd	.
=182	=182	=182	=182	=182	=182
0r	0r	2f	2a	2dd	0r
.	.	2g	2b	2dd	.
.	.	2e	2cc	2ee	.
.	.	2f	2a	2cc	.
=183	=183	=183	=183	=183	=183
0r	1r	2d	2b	2dd	0r
.	.	2c	1cc	2ee	.
.	2r	1g	.	2dd	.
.	[2g	.	2b	2dd	.
=184	=184	=184	=184	=184	=184
2.c	4g]	1e	2cc	2.ee	0r
.	4f	.	.	.	.
.	2e	.	4g	.	.
4B	.	.	4g	4dd	.
2A	2f	1r	2a	2cc	.
2B-	2d	.	2f	2dd	.
=185	=185	=185	=185	=185	=185
2G	2e	0r	2g	2b	0r
2A	2.c	.	2e	2cc	.
2.F	.	.	2f	2a	.
.	4A	.	.	.	.
.	[2d	.	2f	2a	.
4D	.	.	.	.	.
=186	=186	=186	=186	=186	=186
1A	4d]	1r	1e	1a	0r
.	8c#	.	.	.	.
.	8B	.	.	.	.
.	2c#	.	.	.	.
1D	2d	2r	1f#	1a	.
.	2A	2d	.	.	.
=187	=187	=187	=187	=187	=187
1G	4B	1d	2r	1g	1b
.	4A	.	.	.	.
.	4G	.	2g	.	.
.	4A	.	.	.	.
1G	4B	2G	1g	1dd	1b
.	4c	.	.	.	.
.	2d	2g	.	.	.
=188	=188	=188	=188	=188	=188
2C	2.c	4g	2e	1.ee	1cc
.	.	4f	.	.	.
2c	.	4e	1g	.	.
.	4d	4d	.	.	.
4c	1e	[1c	.	.	1cc
4B	.	.	.	.	.
4A	.	.	[2a	2ee	.
4G	.	.	.	.	.
=189	=189	=189	=189	=189	=189
1.F	0r	2c]	2a]	2.ff	1a
.	.	2c	2f	.	.
.	.	.	.	4ee	.
.	.	2d	2.f	2dd	1a
2F	.	2A	.	2cc	.
.	.	.	4e	.	.
=190	=190	=190	=190	=190	=190
2.G	0r	2B	4d	2.b	1.g
.	.	.	4c	.	.
.	.	2.d	4B	.	.
4F	.	.	4A	8cc	.
.	.	.	.	8dd	.
2E	.	.	2G	2ee	.
.	.	8c#	.	.	.
.	.	8B	.	.	.
2E	.	2c#	2G	2ee	2g
=191	=191	=191	=191	=191	=191
1D	2r	1d	1A	0a	0f
.	2.a	.	.	.	.
2r	.	2.d	2.a	.	.
.	4g	.	.	.	.
[2D	4f	.	.	.	.
.	4e	4e	4g	.	.
=192	=192	=192	=192	=192	=192
4D]	2d	4f	4f	1r	0a
4E	.	4g	4e	.	.
4F	2.A	2a	2d	.	.
4G	.	.	.	.	.
2A	.	2e	1c	2r	.
.	4B	.	.	.	.
[2F	2c	[2f	.	[2a	.
=193	=193	=193	=193	=193	=193
4F]	2A	2f]	2r	4a]	0cc
4G	.	.	.	4b	.
4A	2a	2.e	2.c	4cc	.
4B	.	.	.	4dd	.
2c	2g	.	.	4ee	.
.	.	4d	4d	4ff	.
4C	[2e	2c	4e	[2gg	.
4D	.	.	4f	.	.
=194	=194	=194	=194	=194	=194
4E	2e]	4G	1g	2gg]	0b
4F	.	4A	.	.	.
2.G	4d	4B	.	2.g	.
.	4c	4c	.	.	.
.	4B	[1d	2G	.	.
4F	4A	.	.	4a	.
2G	2G	.	[2g	4b	.
.	.	.	.	4cc	.
=195	=195	=195	=195	=195	=195
0D	1A	1d]	2g]	0dd	0a
.	.	.	4f#	.	.
.	.	.	4e	.	.
.	2.d	2r	1f#	.	.
.	.	[2d	.	.	.
.	4c	.	.	.	.
=196	=196	=196	=196	=196	=196
1G	4B	4d]	2g	2.dd	[0g
.	4A	4c	.	.	.
.	2G	4B	2.g	.	.
.	.	4A	.	4cc	.
2r	2d	2G	.	4b	.
.	.	.	4f	4g	.
[2C	2c	[2g	4e	4cc	.
.	.	.	4d	4dd	.
=197	=197	=197	=197	=197	=197
4C]	2r	4g]	2c	4ee	1g_
4D	.	4f	.	4ff	.
4E	4G	2e	1B	2gg	.
4F	4A	.	.	.	.
2.G	4B	4d	.	4g	1g_
.	4c	4c	.	4a	.
.	[2d	4B	2G	4b	.
4A	.	4A	.	4cc	.
=198	=198	=198	=198	=198	=198
2B	2d]	2G	2r	2dd	0g]
2c	1c	2c	2.g	2ee	.
1G	.	2d	.	1dd	.
.	.	.	4f	.	.
.	2B	[2g	2d	.	.
=199	=199	=199	=199	=199	=199
0C	1c	4g]	2e	2.gg	[0g
.	.	4f	.	.	.
.	.	4e	2c	.	.
.	.	4d	.	4ff	.
.	2.G	1c	1cc	1ee	.
.	4A	.	.	.	.
=200	=200	=200	=200	=200	=200
0G	0B	0d	0b	0dd	0g]
==	==	==	==	==	==
*-	*-	*-	*-	*-	*-
!!!CDT: 1525/^1526/-1594/2/2
!!!OCY: Italia
!!!AGN: Mass (Tenor)
!!!AST: renaissance, vocal
!!!ASW: Hymn
!!!PWK: Masses, Book 9
!!!RNB: Cadence finals: C,D
!!!YOR: Le Opere Complete, v. 25, p. 246
!!!YOO: Rome, Italy: Fratelli Scalera
!!!END: 1992//
!!!EED: John Miller
!!!YEC: Copyright 2000, John Miller
!!!YEN: United States of America
!!!YEM: Rights to all derivative electronic formats reserved.
!!!YEM: Refer to licensing agreement for further details.
!!!YEM: This file must be accompanied by the licensing agreement.
!!!YEM: A copy of the licensing agreement may be found at http://www.music-cog.ohio-state.edu/HumdrumDatabases/Palestrina/license.txt
!!!EMD: converted to Humdrum by Bret Aarden
